client/public/images/logo.svg

<svg width="40" height="40" viewBox="0 0 40 40" fill="none" xmlns="http://www.w3.org/2000/svg">
<rect width="40" height="40" rx="6" fill="#F2CE3C"/>
<path d="M17.3069 24.064C17.2749 24.096 17.2669 24.136 17.2829 24.184C17.3149 24.216 17.3549 24.232 17.4029 24.232H22.1789C22.3229 24.232 22.3949 24.168 22.3949 24.04V13.48C22.3949 13.352 22.3229 13.288 22.1789 13.288H19.4429C19.2989 13.288 19.2269 13.36 19.2269 13.504C19.2269 16.512 19.1069 18.664 18.8669 19.96C18.6269 21.256 18.1069 22.624 17.3069 24.064ZM13.0349 31.36C12.6669 31.36 12.3469 31.224 12.0749 30.952C11.8029 30.68 11.6669 30.36 11.6669 29.992V25.312C11.6669 25.008 11.7709 24.752 11.9789 24.544C12.1869 24.336 12.4429 24.232 12.7469 24.232C12.8909 24.232 12.9789 24.192 13.0109 24.112C13.9549 22.672 14.5789 21.272 14.8829 19.912C15.1869 18.552 15.3389 16.344 15.3389 13.288V11.368C15.3389 11 15.4669 10.68 15.7229 10.408C15.9949 10.136 16.3149 10 16.6829 10H25.0349C25.4029 10 25.7229 10.136 25.9949 10.408C26.2669 10.68 26.4029 11 26.4029 11.368V24.04C26.4029 24.168 26.4669 24.232 26.5949 24.232H27.1469C27.5149 24.232 27.8349 24.368 28.1069 24.64C28.3789 24.912 28.5149 25.232 28.5149 25.6V29.992C28.5149 30.36 28.3789 30.68 28.1069 30.952C27.8349 31.224 27.5149 31.36 27.1469 31.36H26.1149C25.7469 31.36 25.4269 31.224 25.1549 30.952C24.8829 30.68 24.7469 30.36 24.7469 29.992V27.736C24.7469 27.592 24.6829 27.52 24.5549 27.52H15.6269C15.4989 27.52 15.4349 27.592 15.4349 27.736V29.992C15.4349 30.36 15.2989 30.68 15.0269 30.952C14.7549 31.224 14.4349 31.36 14.0669 31.36H13.0349Z" fill="black"/>
</svg>

<svg width="40" height="40" viewBox="0 0 40 40" fill="none" xmlns="http://www.w3.org/2000/svg">
  <rect width="40" height="40" rx="6" fill="#F2CE3C"/>
  <path fill="#000" d="M17.307 24.064c-.032.032-.04.072-.024.12a.163.163 0 0 0 .12.048h4.776c.144 0 .216-.064.216-.192V13.48c0-.128-.072-.192-.216-.192h-2.736c-.144 0-.216.072-.216.216 0 3.008-.12 5.16-.36 6.456-.24 1.296-.76 2.664-1.56 4.104Zm-4.272 7.296c-.368 0-.688-.136-.96-.408a1.314 1.314 0 0 1-.408-.96v-4.68c0-.304.104-.56.312-.768.208-.208.464-.312.768-.312.144 0 .232-.04.264-.12.944-1.44 1.568-2.84 1.872-4.2.304-1.36.456-3.568.456-6.624v-1.92c0-.368.128-.688.384-.96.272-.272.592-.408.96-.408h8.352c.368 0 .688.136.96.408.272.272.408.592.408.96V24.04c0 .128.064.192.192.192h.552c.368 0 .688.136.96.408.272.272.408.592.408.96v4.392c0 .368-.136.688-.408.96a1.314 1.314 0 0 1-.96.408h-1.032c-.368 0-.688-.136-.96-.408a1.314 1.314 0 0 1-.408-.96v-2.256c0-.144-.064-.216-.192-.216h-8.928c-.128 0-.192.072-.192.216v2.256c0 .368-.136.688-.408.96a1.314 1.314 0 0 1-.96.408h-1.032Z"/>
</svg>
